creative/fonts/xidili.svg

<?xml version="1.0" encoding="UTF-8" standalone="no"?>
<svg width="500" height="850" version="1.1" id="svg5" sodipodi:docname="xidili.svg" inkscape:version="1.4.3 (0d15f750, 2025-12-25)" xmlns:inkscape="http://www.inkscape.org/namespaces/inkscape" xmlns:sodipodi="http://sodipodi.sourceforge.net/DTD/sodipodi-0.dtd" xmlns="http://www.w3.org/2000/svg" xmlns:svg="http://www.w3.org/2000/svg">
    <defs id="defs5" />
    <sodipodi:namedview id="namedview5" pagecolor="#ffffff" bordercolor="#000000" borderopacity="0.25" inkscape:showpageshadow="2" inkscape:pageopacity="0.0" inkscape:pagecheckerboard="0" inkscape:deskcolor="#d1d1d1" inkscape:zoom="0.59294118" inkscape:cx="249.60317" inkscape:cy="425" inkscape:window-width="1095" inkscape:window-height="723" inkscape:window-x="0" inkscape:window-y="25" inkscape:window-maximized="0" inkscape:current-layer="svg5" />
    <path id="path5" d="m 108.57812,258.57812 -17.677729,7.32227 -7.322266,17.67773 7.322266,17.67774 282.843749,282.84375 17.67774,7.32227 17.67773,-7.32227 7.32227,-17.67773 -7.32227,-17.67774 -282.84375,-282.84375 z m 282.84376,0 -17.67774,7.32227 -282.843749,282.84375 -7.322266,17.67774 7.322266,17.67773 17.677729,7.32227 17.67774,-7.32227 282.84375,-282.84375 7.32227,-17.67774 -7.32227,-17.67773 z M 50,400 32.322266,407.32227 25,425 32.322266,442.67773 50,450 H 450 L 467.67773,442.67773 475,425 467.67773,407.32227 450,400 Z M 250,200 108.578,258.578 90.9,265.9 83.578,283.578 25,425 83.578,566.422 90.9,584.1 108.578,591.422 250,650 391.422,591.422 409.1,584.1 416.422,566.422 475,425 416.422,283.578 409.1,265.9 391.422,258.578 Z m 0,50 123.744,51.256 L 425,425 373.744,548.744 250,600 126.256,548.744 75,425 126.256,301.256 Z m 0,50 -88.38867,36.61133 L 125,425 161.61133,513.38867 250,550 338.38867,513.38867 375,425 338.38867,336.61133 Z m 0,50 53.0332,21.9668 L 325,425 303.0332,478.0332 250,500 196.9668,478.0332 175,425 196.9668,371.9668 Z" style="fill:none;stroke:#ff0000" />
</svg>

<svg width="500" height="850" xmlns="http://www.w3.org/2000/svg">
    <path
        d="M 250 300 L 161.61133 336.61133 L 125 425 L 161.61133 513.38867 L 250 550 L 338.38867 513.38867 L 375 425 L 338.38867 336.61133 L 250 300 z M 250 350 L 303.0332 371.9668 L 325 425 L 303.0332 478.0332 L 250 500 L 196.9668 478.0332 L 175 425 L 196.9668 371.9668 L 250 350 z " />
    <path
        d="m250 200-141.422 58.578L90.9 265.9l-7.322 17.678L25 425l58.578 141.422L90.9 584.1l17.678 7.322L250 650l141.422-58.578L409.1 584.1l7.322-17.678L475 425l-58.578-141.422L409.1 265.9l-17.678-7.322zm0 50 123.744 51.256L425 425l-51.256 123.744L250 600l-123.744-51.256L75 425l51.256-123.744z" />
    <path
        d="M 50 400 L 32.322266 407.32227 L 25 425 L 32.322266 442.67773 L 50 450 L 450 450 L 467.67773 442.67773 L 475 425 L 467.67773 407.32227 L 450 400 L 50 400 z " />
    <path
        d="M 391.42188 258.57812 L 373.74414 265.90039 L 90.900391 548.74414 L 83.578125 566.42188 L 90.900391 584.09961 L 108.57812 591.42188 L 126.25586 584.09961 L 409.09961 301.25586 L 416.42188 283.57812 L 409.09961 265.90039 L 391.42188 258.57812 z " />
    <path
        d="M 108.57812 258.57812 L 90.900391 265.90039 L 83.578125 283.57812 L 90.900391 301.25586 L 373.74414 584.09961 L 391.42188 591.42188 L 409.09961 584.09961 L 416.42188 566.42188 L 409.09961 548.74414 L 126.25586 265.90039 L 108.57812 258.57812 z " />
</svg>
